build/img/adv-icon-1.svg

<svg width="44" height="46" viewBox="0 0 44 46" fill="none" xmlns="http://www.w3.org/2000/svg">
<path d="M41.554 11.5221C41.4935 11.1325 41.1448 10.8584 40.7584 10.8966C39.0027 11.0688 37.6893 12.6131 37.7752 14.4042L37.9074 19.897C36.4629 20.043 35.1985 20.9462 34.5733 22.2783L32.5992 26.4929C32.292 27.1464 31.8444 27.7212 31.2894 28.1752L30.879 28.5094C28.7918 30.2026 27.6291 32.8095 27.7512 35.5213L26.9448 35.1307C26.5792 34.9538 26.1416 35.1114 25.9672 35.4831L23.8023 40.1047C23.6283 40.4764 23.7837 40.9213 24.1493 41.0982L34.1243 45.9284C34.2997 46.0136 34.5013 46.0242 34.6847 45.9579C34.868 45.892 35.018 45.7544 35.1015 45.5757L37.2664 40.9544C37.4404 40.5824 37.2854 40.1375 36.9198 39.9606L36.6537 39.8321L36.3852 38.2747C36.3519 37.7213 36.5273 37.1756 36.8754 36.7486L42.041 30.3937C42.0514 30.3806 42.0614 30.3675 42.0711 30.354C43.136 28.8425 43.6975 27.0244 43.6735 25.1656C43.6728 25.1303 43.6696 25.0949 43.6642 25.06L41.554 11.5221ZM34.0924 44.2615L25.4419 40.0727L26.9763 36.7977L35.6271 40.9861L34.0924 44.2615ZM40.8952 29.4635L35.7456 35.7987C35.148 36.5312 34.854 37.4712 34.9256 38.4203C34.9274 38.4447 34.9303 38.4691 34.9346 38.4935L35.0298 39.0454L29.2991 36.2706C28.8963 33.7739 29.8513 31.2507 31.7964 29.6729L32.2068 29.3383C32.9344 28.7438 33.5209 27.9902 33.9234 27.134L35.8978 22.9197C36.4142 21.8214 37.5833 21.2032 38.7643 21.4042L35.8781 27.565C35.7639 27.8057 35.785 28.0904 35.9336 28.3106C36.0822 28.5312 36.3358 28.6539 36.5979 28.6324C36.86 28.6109 37.0906 28.4482 37.2023 28.2061L40.4472 21.2786C40.6216 20.9069 40.4662 20.462 40.1006 20.2847C39.8682 20.1726 39.6258 20.0827 39.3773 20.0161L39.2412 14.3587C39.2412 14.3526 39.2412 14.346 39.2405 14.3394C39.2029 13.6055 39.5918 12.9175 40.2338 12.5804L42.2079 25.2402C42.2165 26.7528 41.7574 28.2301 40.8952 29.4635Z" fill="black"/>
<path d="M7.2891 38.2747L7.02018 39.8321L6.75484 39.9606C6.38924 40.1379 6.23384 40.5827 6.40822 40.9544L8.57282 45.5757C8.65661 45.7544 8.80628 45.892 8.98962 45.9579C9.17296 46.0242 9.37492 46.0136 9.55037 45.9284L19.5254 41.0982C19.891 40.9213 20.0461 40.4764 19.872 40.1047L17.7074 35.4831C17.5331 35.1114 17.0955 34.9538 16.7299 35.1307L15.9231 35.5214C16.0456 32.8096 14.8825 30.2026 12.7957 28.5094L12.3853 28.1748C11.8303 27.7212 11.3827 27.1464 11.0754 26.4929L9.10098 22.2783C8.47613 20.9466 7.21175 20.0434 5.76726 19.8974L5.89939 14.4047C5.98533 12.6135 4.67225 11.0692 2.91623 10.897C2.53022 10.8592 2.18145 11.133 2.12057 11.5225L0.00969004 25.0604C0.00431881 25.0953 0.00109612 25.1307 0.000738058 25.166C-0.0232533 27.0248 0.538216 28.8429 1.60315 30.354C1.61246 30.3675 1.62248 30.381 1.63287 30.3937L6.79853 36.7486C7.14694 37.1756 7.3224 37.7213 7.2891 38.2747ZM18.2327 40.0727L9.58189 44.2615L8.04751 40.9861L16.6984 36.7977L18.2327 40.0727ZM1.46672 25.2399L3.44045 12.5804C4.08285 12.9172 4.47137 13.6056 4.43377 14.3395C4.43377 14.3457 4.43377 14.3522 4.43341 14.3588L4.29734 20.0158C4.04847 20.0824 3.80641 20.1727 3.57402 20.2848C3.20842 20.4617 3.05301 20.9066 3.22704 21.2783L6.47232 28.2062C6.58404 28.4479 6.81464 28.6106 7.07676 28.6321C7.33887 28.6539 7.59203 28.5312 7.741 28.3106C7.8896 28.09 7.91073 27.8057 7.7965 27.5647L4.91037 21.4042C6.09132 21.2033 7.26081 21.8214 7.77716 22.9198L9.75126 27.134C10.1537 27.9903 10.7406 28.7435 11.4679 29.3383L11.8783 29.6729C13.8237 31.2507 14.7787 33.7739 14.3755 36.2706L8.64515 39.0454L8.7404 38.4935C8.74469 38.4691 8.74756 38.4447 8.74935 38.4203C8.82097 37.4712 8.52698 36.5312 7.92935 35.7988L2.77944 29.4636C1.91718 28.2302 1.45812 26.7529 1.46672 25.2399Z" fill="black"/>
<path d="M12.1562 14.1153C12.4258 14.4072 12.8695 14.4422 13.1803 14.1961L13.4958 13.9576V22.2459C13.4958 22.6577 13.7786 23.0195 14.1836 23.0195H29.4912C29.8962 23.0195 30.1794 22.658 30.1794 22.2459V13.9576L30.4946 14.1961C30.6288 14.3024 30.7943 14.3599 30.9644 14.3595C31.1728 14.3599 31.3718 14.2714 31.5133 14.1153L33.7943 11.5651C33.9307 11.4126 33.9994 11.2098 33.9837 11.0041C33.974 10.801 33.8813 10.6113 33.728 10.481L29.7211 7.21508V0.784525C29.7082 0.358224 29.3727 0.01529 28.9537 0H25.933C25.528 0 25.2293 0.372058 25.2293 0.783797V3.5735L22.3099 1.21629C22.0392 0.99895 21.6578 0.99895 21.3871 1.21629L9.96688 10.481C9.8079 10.6091 9.70835 10.798 9.69152 11.0034C9.67505 11.2091 9.74273 11.4122 9.8788 11.5651L12.1562 14.1153ZM28.7127 21.5284H14.9625V12.7628L21.8376 7.12662L28.7127 12.7628V21.5284ZM26.696 1.49114H28.2544V6.02464L26.696 4.76358V1.49114ZM21.8376 2.75294L32.1858 11.1508L30.8963 12.5943L22.2959 5.58924C22.0277 5.37118 21.6471 5.37118 21.3793 5.58924L12.7785 12.5943L11.4894 11.1508L21.8376 2.75294Z" fill="black"/>
</svg>

<svg width="44" height="46" fill="none" xmlns="http://www.w3.org/2000/svg"><path d="M41.554 11.522a.736.736 0 00-.796-.625c-1.755.172-3.069 1.716-2.983 3.507l.132 5.493a4.152 4.152 0 00-3.334 2.381L32.6 26.493a4.823 4.823 0 01-1.31 1.682l-.41.334a8.534 8.534 0 00-3.128 7.012l-.806-.39a.729.729 0 00-.978.352l-2.165 4.622a.751.751 0 00.347.993l9.975 4.83a.72.72 0 00.56.03.736.736 0 00.418-.382l2.164-4.622a.751.751 0 00-.346-.993l-.266-.129-.269-1.557c-.033-.554.142-1.1.49-1.526l5.166-6.355.03-.04a8.814 8.814 0 001.602-5.188.795.795 0 00-.009-.106l-2.11-13.538zm-7.462 32.74l-8.65-4.19 1.534-3.274 8.651 4.188-1.535 3.276zm6.803-14.799l-5.15 6.336a3.708 3.708 0 00-.82 2.621.731.731 0 00.01.073l.095.552-5.73-2.774a7.05 7.05 0 012.496-6.598l.41-.335a6.313 6.313 0 001.717-2.204l1.975-4.214a2.675 2.675 0 012.866-1.516l-2.886 6.161a.756.756 0 00.056.746.73.73 0 001.268-.105l3.245-6.927a.751.751 0 00-.346-.994 4.121 4.121 0 00-.724-.269l-.136-5.657v-.02a1.876 1.876 0 01.993-1.759l1.974 12.66a7.301 7.301 0 01-1.313 4.224zM7.29 38.275l-.27 1.557-.265.129a.751.751 0 00-.347.993l2.165 4.622a.737.737 0 00.417.382.721.721 0 00.56-.03l9.975-4.83a.75.75 0 00.347-.993l-2.165-4.622a.728.728 0 00-.977-.352l-.807.39a8.534 8.534 0 00-3.127-7.012l-.41-.334a4.82 4.82 0 01-1.31-1.682L9.1 22.278a4.152 4.152 0 00-3.334-2.38l.132-5.493c.086-1.791-1.227-3.336-2.983-3.508a.737.737 0 00-.795.626L.01 25.06a.745.745 0 00-.01.106 8.812 8.812 0 001.633 5.228l5.166 6.355c.348.427.523.972.49 1.526zm10.943 1.798L9.582 44.26l-1.534-3.275 8.65-4.188 1.535 3.275zM1.467 25.24L3.44 12.58a1.875 1.875 0 01.994 1.76v.019l-.137 5.657c-.249.066-.49.157-.723.269a.751.751 0 00-.347.993l3.245 6.928a.729.729 0 001.269.104.757.757 0 00.056-.745l-2.887-6.16a2.674 2.674 0 012.867 1.515l1.974 4.214c.403.856.99 1.61 1.717 2.204l.41.335a7.05 7.05 0 012.498 6.598l-5.73 2.774.094-.552a.731.731 0 00.01-.073 3.707 3.707 0 00-.82-2.621l-5.15-6.335a7.301 7.301 0 01-1.313-4.224zm10.689-11.125a.753.753 0 001.024.081l.316-.238v8.288c0 .412.283.774.688.774H29.49c.405 0 .688-.362.688-.774v-8.288l.316.238c.134.106.3.164.47.164a.739.739 0 00.548-.245l2.281-2.55a.756.756 0 00.19-.56.732.732 0 00-.256-.524L29.72 7.215V.785A.803.803 0 0028.954 0h-3.021c-.405 0-.704.372-.704.784v2.79l-2.92-2.358a.735.735 0 00-.922 0l-11.42 9.265a.754.754 0 00-.088 1.084l2.277 2.55zm16.557 7.413h-13.75v-8.765l6.875-5.636 6.875 5.636v8.765zM26.696 1.491h1.558v4.534l-1.558-1.261V1.49zm-4.858 1.262l10.348 8.398-1.29 1.443-8.6-7.005a.724.724 0 00-.917 0l-8.6 7.005-1.29-1.443 10.349-8.398z" fill="#000"/></svg>
